img/vector-1.svg

<svg fill="none" height="73" viewBox="0 0 93 73" width="93" xmlns="http://www.w3.org/2000/svg"><path d="m86.639 35.0098 5.9134 31.4414c.5207 2.7683-1.3071 5.4327-4.0772 5.9436-2.2404.4131-4.4822-.7133-5.4878-2.7575l-10.842-22.039c-8.1049-16.4752-26.9395-24.668-44.5178-19.3648l-7.3223 2.2091c-9.7514 2.9419-19.59955-4.292-19.708637-14.4769l-.167455-15.633873 53.127692 4.686463c16.5016 1.45563 30.0202 13.71121 33.0821 29.99151z" fill="#241ed3"/></svg>

<svg width="93" height="73" viewBox="0 0 93 73" fill="none" xmlns="http://www.w3.org/2000/svg">
<path d="M86.639 35.0098L92.5524 66.4512C93.0731 69.2195 91.2453 71.8839 88.4752 72.3948C86.2348 72.8079 83.993 71.6815 82.9874 69.6373L72.1454 47.5983C64.0405 31.1231 45.2059 22.9303 27.6276 28.2335L20.3053 30.4426C10.5539 33.3845 0.70575 26.1506 0.596663 15.9657L0.429208 0.331827L53.5569 5.01829C70.0585 6.47392 83.5771 18.7295 86.639 35.0098Z" fill="#241ED3"/>
</svg>
